Assets/Icons/food & beverage/grapes.svg

<svg enable-background="new 0 0 60 60" viewBox="0 0 60 60" xmlns="http://www.w3.org/2000/svg"><path d="m28.5 40.5c0-3.31-2.69-6-6-6s-6 2.69-6 6 2.69 6 6 6 6-2.69 6-6zm-6 3c-1.65 0-3-1.35-3-3s1.35-3 3-3 3 1.35 3 3-1.35 3-3 3z"/><path d="m37.5 34.5c-3.31 0-6 2.69-6 6s2.69 6 6 6 6-2.69 6-6-2.69-6-6-6zm0 9c-1.65 0-3-1.35-3-3s1.35-3 3-3 3 1.35 3 3-1.35 3-3 3z"/><path d="m45 22.5c-3.31 0-6 2.69-6 6s2.69 6 6 6 6-2.69 6-6-2.69-6-6-6zm0 9c-1.65 0-3-1.35-3-3s1.35-3 3-3 3 1.35 3 3-1.35 3-3 3z"/><path d="m21 28.5c0-3.31-2.69-6-6-6s-6 2.69-6 6 2.69 6 6 6 6-2.69 6-6zm-6 3c-1.65 0-3-1.35-3-3s1.35-3 3-3 3 1.35 3 3-1.35 3-3 3z"/><path d="m24 28.5c0 3.31 2.69 6 6 6s6-2.69 6-6-2.69-6-6-6-6 2.69-6 6zm9 0c0 1.65-1.35 3-3 3s-3-1.35-3-3 1.35-3 3-3 3 1.35 3 3z"/><path d="m30 46.5c-3.31 0-6 2.69-6 6s2.69 6 6 6 6-2.69 6-6-2.69-6-6-6zm0 9c-1.65 0-3-1.35-3-3s1.35-3 3-3 3 1.35 3 3-1.35 3-3 3z"/><path d="m14.03 20h.46c.99 0 1.94-.56 2.29-1.49 1.18-3.12 5.98-5.59 11.74-5.96-.01.15-.02.3-.02.45v6.5c0 .28.22.5.5.5 1.38 0 2.5-1.12 2.5-2.5v-4.5c0-.15.01-.3.02-.44 5.74.38 10.52 2.85 11.7 5.95.35.93 1.3 1.49 2.29 1.49h.46c.29 0 .53-.24.51-.53-.38-5.16-6.37-9.22-14.27-9.87 1.31-3 4.3-5.1 7.79-5.1h2.5c1.38 0 2.5-1.12 2.5-2.5 0-.28-.22-.5-.5-.5h-4.5c-5.14 0-9.49 3.37-10.96 8.03-8.51.3-15.11 4.51-15.52 9.94-.02.29.22.53.51.53z"/></svg>

<?xml version="1.0" encoding="utf-8"?>
<!-- Generator: Adobe Illustrator 21.1.0, SVG Export Plug-In . SVG Version: 6.00 Build 0)  -->
<svg version="1.1" id="eps" xmlns="http://www.w3.org/2000/svg" xmlns:xlink="http://www.w3.org/1999/xlink" x="0px" y="0px"
	 viewBox="0 0 60 60" style="enable-background:new 0 0 60 60;" xml:space="preserve">
<g>
	<path d="M28.5,40.5c0-3.31-2.69-6-6-6s-6,2.69-6,6s2.69,6,6,6S28.5,43.81,28.5,40.5z M22.5,43.5c-1.65,0-3-1.35-3-3s1.35-3,3-3
		s3,1.35,3,3S24.15,43.5,22.5,43.5z"/>
	<path d="M37.5,34.5c-3.31,0-6,2.69-6,6s2.69,6,6,6s6-2.69,6-6S40.81,34.5,37.5,34.5z M37.5,43.5c-1.65,0-3-1.35-3-3s1.35-3,3-3
		s3,1.35,3,3S39.15,43.5,37.5,43.5z"/>
	<path d="M45,22.5c-3.31,0-6,2.69-6,6s2.69,6,6,6s6-2.69,6-6S48.31,22.5,45,22.5z M45,31.5c-1.65,0-3-1.35-3-3s1.35-3,3-3
		s3,1.35,3,3S46.65,31.5,45,31.5z"/>
	<path d="M21,28.5c0-3.31-2.69-6-6-6s-6,2.69-6,6s2.69,6,6,6S21,31.81,21,28.5z M15,31.5c-1.65,0-3-1.35-3-3s1.35-3,3-3s3,1.35,3,3
		S16.65,31.5,15,31.5z"/>
	<path d="M24,28.5c0,3.31,2.69,6,6,6s6-2.69,6-6s-2.69-6-6-6S24,25.19,24,28.5z M33,28.5c0,1.65-1.35,3-3,3s-3-1.35-3-3s1.35-3,3-3
		S33,26.85,33,28.5z"/>
	<path d="M30,46.5c-3.31,0-6,2.69-6,6s2.69,6,6,6s6-2.69,6-6S33.31,46.5,30,46.5z M30,55.5c-1.65,0-3-1.35-3-3s1.35-3,3-3
		s3,1.35,3,3S31.65,55.5,30,55.5z"/>
	<path d="M14.03,20h0.46c0.99,0,1.94-0.56,2.29-1.49c1.18-3.12,5.98-5.59,11.74-5.96c-0.01,0.15-0.02,0.3-0.02,0.45v6.5
		c0,0.28,0.22,0.5,0.5,0.5c1.38,0,2.5-1.12,2.5-2.5V13c0-0.15,0.01-0.3,0.02-0.44c5.74,0.38,10.52,2.85,11.7,5.95
		c0.35,0.93,1.3,1.49,2.29,1.49h0.46c0.29,0,0.53-0.24,0.51-0.53c-0.38-5.16-6.37-9.22-14.27-9.87c1.31-3,4.3-5.1,7.79-5.1h2.5
		C43.88,4.5,45,3.38,45,2c0-0.28-0.22-0.5-0.5-0.5H40c-5.14,0-9.49,3.37-10.96,8.03c-8.51,0.3-15.11,4.51-15.52,9.94
		C13.5,19.76,13.74,20,14.03,20z"/>
</g>
</svg>
